tetrification/src/assets/images/navbar/logout.svg

<svg width="40" height="40" viewBox="0 0 40 40" fill="none" xmlns="http://www.w3.org/2000/svg">
<path d="M0 4C0 1.79086 1.79086 0 4 0H20C22.2091 0 24 1.79086 24 4V10.6667C24 11.4031 23.4031 12 22.6667 12C21.9303 12 21.3333 11.4031 21.3333 10.6667V4C21.3333 3.26362 20.7364 2.66667 20 2.66667H4C3.26362 2.66667 2.66667 3.26362 2.66667 4V36C2.66667 36.7364 3.26362 37.3333 4 37.3333H20C20.7364 37.3333 21.3333 36.7364 21.3333 36V29.3333C21.3333 28.5969 21.9303 28 22.6667 28C23.4031 28 24 28.5969 24 29.3333V36C24 38.2091 22.2091 40 20 40H4C1.79086 40 0 38.2091 0 36V4Z" fill="black"/>
<path d="M28.4451 28.6666C28.4451 29.2029 28.7663 29.6869 29.2604 29.8952C29.7545 30.1036 30.3253 29.9956 30.7093 29.6213L39.5981 20.9546C39.8555 20.7037 40.0007 20.3595 40.0007 20C40.0007 19.6405 39.8555 19.2963 39.5981 19.0453L30.7093 10.3786C30.3253 10.0044 29.7545 9.89645 29.2604 10.1048C28.7663 10.3131 28.4451 10.7971 28.4451 11.3333V18.6666H8.66732C7.93092 18.6666 7.33398 19.2636 7.33398 20C7.33398 20.7364 7.93092 21.3333 8.66732 21.3333H28.4451V28.6666Z" fill="black"/>
</svg>

<svg xmlns="http://www.w3.org/2000/svg" width="40" height="40" fill="none"><path fill="#000" d="M0 4a4 4 0 0 1 4-4h16a4 4 0 0 1 4 4v6.667a1.333 1.333 0 1 1-2.667 0V4c0-.736-.597-1.333-1.333-1.333H4c-.736 0-1.333.597-1.333 1.333v32c0 .736.597 1.333 1.333 1.333h16c.736 0 1.333-.597 1.333-1.333v-6.667a1.333 1.333 0 0 1 2.667 0V36a4 4 0 0 1-4 4H4a4 4 0 0 1-4-4V4Z"/><path fill="#000" d="M28.445 28.667a1.333 1.333 0 0 0 2.264.954l8.89-8.666a1.333 1.333 0 0 0 0-1.91l-8.89-8.666a1.334 1.334 0 0 0-2.264.954v7.334H8.667a1.333 1.333 0 0 0 0 2.666h19.778v7.334Z"/></svg>
